X: 3
T: The Humours Of Whiskey
R: slip jig
M: 9/8
L: 1/8
K: Bmin
|: gfe fBB fBB | gfe fBB fga |\
gbe fBB fBB | agf efd cBA :|
|: [D2d2] e fdf ecA | [D2d2] e fdf gfe |\
[D2d2] e fdf efg | agf efd cBA :|


Tune 46	Setting 26976

